Sources/FrostedUI/Resources/Icons.xcassets/twitterFilledSize20.imageset/twitter-filled-size-20.svg

<svg
  width="20"
  height="20"
  viewBox="0 0 20 20"
  fill="none"
  xmlns="http://www.w3.org/2000/svg"
  data-fui-icon="true"
>
  <path
    d="M19.375 4.27604C18.6855 4.57678 17.9447 4.77999 17.1661 4.87184C17.9604 4.40365 18.5698 3.66072 18.8573 2.77637C18.1141 3.21042 17.2908 3.52579 16.4146 3.69487C15.7127 2.96007 14.7135 2.5 13.607 2.5C11.4831 2.5 9.7605 4.19557 9.7605 6.2878C9.7605 6.58367 9.79525 6.87141 9.85958 7.1494C6.6614 6.9909 3.82817 5.48309 1.93055 3.19253C1.60024 3.75338 1.41031 4.40365 1.41031 5.09618C1.41031 6.40972 2.08992 7.56963 3.12131 8.24835C2.49042 8.22802 1.89752 8.05814 1.37893 7.77447V7.82323C1.37893 9.65783 2.7043 11.1883 4.46484 11.5363C4.14114 11.6224 3.80175 11.6679 3.45162 11.6679C3.20389 11.6679 2.96193 11.6452 2.72742 11.6012C3.2171 13.105 4.63743 14.2008 6.32118 14.23C5.00408 15.246 3.3451 15.8516 1.54326 15.8516C1.23277 15.8516 0.926408 15.8337 0.625 15.7987C2.32774 16.8741 4.34923 17.5 6.52102 17.5C13.5979 17.5 17.4667 11.7305 17.4667 6.72673C17.4667 6.56416 17.4625 6.39997 17.4551 6.2374C18.2065 5.70256 18.8589 5.03685 19.3733 4.27848L19.375 4.27604Z"
    fill="currentColor"
  />
</svg>

<svg xmlns="http://www.w3.org/2000/svg" width="20" height="20" fill="none" data-fui-icon="true" viewBox="0 0 20 20"><path fill="currentColor" d="M19.375 4.276a7.8 7.8 0 0 1-2.209.596 3.8 3.8 0 0 0 1.691-2.096 7.8 7.8 0 0 1-2.442.919A3.87 3.87 0 0 0 13.607 2.5c-2.124 0-3.846 1.696-3.846 3.788q0 .444.099.861a10.98 10.98 0 0 1-7.93-3.956 3.74 3.74 0 0 0-.52 1.903c0 1.314.68 2.474 1.711 3.152a3.9 3.9 0 0 1-1.742-.474v.05c0 1.834 1.325 3.364 3.086 3.712a3.9 3.9 0 0 1-1.738.065 3.84 3.84 0 0 0 3.594 2.629 7.8 7.8 0 0 1-4.778 1.622q-.466 0-.918-.053A11 11 0 0 0 6.521 17.5c7.077 0 10.946-5.77 10.946-10.773q0-.245-.012-.49a7.8 7.8 0 0 0 1.918-1.959z"/></svg>
